X: 192
T: Wednesday Night
B: 204 Favourite Country Dances
N: Published by Straight & Skillern, London ca.1775
F: http://imslp.org/wiki/204_Favourite_Country_Dances_(Various) p.96 #192
Z: 2014 John Chambers <jc:trillian.mit.edu>
M: 2/4
L: 1/8
K: D
% - - - - - - - - - - - - - - - - - - - - - - - - -
|:\
D2FA | d2f2 | edcB | AGFE |\
D2FA | d2f2 | edcd | e4  :|
|:\
a2fd | B2gf | edcB | AGFE |\
D2FA | d2g2 | fdec | d4  :|
% - - - - - - - - - - - - - - - - - - - - - - - - -
%%begintext align
%% Cast off two Cu. .| lead up to the top .|. cross
%% over & half figure :|. Right and Left :|: hands
%% 3 round with the 3d Wo. .|| the Same with the
%% 2d Man .||. foot it on both sides & turn your
%% Partner :||:
%%endtext

%%sep 1 1 500
%%sep 1 1 500
